X:1
T:Title
%%score ( 1 2 3 ) { ( 4 7 ) | ( 5 6 ) }
L:1/8
Q:1/4=92
M:3/4
K:Eb
V:1 treble nm="Grand Piano, Soprano"
V:2 treble 
V:3 treble 
V:4 bass nm="Choir Pad, Bass"
V:7 bass 
V:5 bass 
V:6 bass 
V:1
 G_G A =G3 | ED F E3- | E G2 B3 | F=E FA- A/G/G- | G2 G c3 | cB EA- A/A/G- | G2 GB AG | %7
w: By~Charles~Hutchinson~Gabriel,~1900 * * *|||||||
 EF- F/E/ E3 | [GB][GB] [Ge]A .A2 | BA- [Af]e- [Ae]2 | e[Ae] [Be]e- [Ae-][Ae] | %11
w: ||||
 [Ac][EB] [EG] [DF]3 | z2 z B3 | z2 z c3 | [Ae][Ad] [_Gc][=GB] E[EG]- | [EG] [B,F]2 [B,E]3- | %16
w: |||||
 [B,E]4 z2 |] %17
w: |
V:2
 x6 | x6 | x6 | x6 | x6 | x6 | x6 | x6 | z2 z d3 | z B z G z G- | G z z A z2 | x6 | %12
 [DF][EG] [FA]G .G2 | e[Ad] [Be]A AA | x6 | x6 | x6 |] %17
V:3
 x6 | x6 | x6 | x6 | x6 | x6 | x6 | x6 | z2 z2 z A- | A z z2 z2 | x6 | x6 | z2 z2 z G- | %13
 G z z2 z2 | x6 | x6 | x6 |] %17
V:4
 B,=A, C B,3 | z F, A, G,3- | G,B,[K:treble] E D3 | D_D =DC- C<[K:bass].B, | E,2 B, B,3 | %5
 A,G, G,F,- F,/B,/B,- | B,2 z C =B,_B, | G,A,- A,/G,/ G,3 | EE B,B, B,B,- | B, B,2 B, CB,- | %10
 B,B,[K:treble] _DC CC | EE[K:bass] B, B,3 | B,B, B,[K:treble]E EE- | EB, EE EE | %14
 EC EE[K:bass] G,B,- | B, A,2 G,3- | G,4 z2 |] %17
V:5
 z2 z2 z E,- | E, z z2 z2 | z6 | z6 | z6 | z6 | z .E,3 z2 | z6 | E,E, E,F, D,B,,- | %9
 B,, B,,2 E, E,E,- | E,F, G,A, A,A, | A,G, E, B,,3 | A,G, F,E, E,E,- | E,F, G,A, A,A, | %14
 A,,A,, =A,,B,, C,B,,- | B,, B,,2 E,3- | E,4 z2 |] %17
V:6
 z2 z E,, .B,,2 | G, B,,2 E, B,,E,,- | E,,3 B,, F,,B,,,- | B,,,3 E,,3- | E,,2 z A,,3- | %5
 A,, G,,2 F,,2 E,,- | E,, z _D A,,2 B,,- | B,, [B,,,G,,]2 [E,,E,]3 | x6 | x6 | x6 | x6 | x6 | x6 | %14
 x6 | x6 | x6 |] %17
V:7
 x6 | x6 | x2[K:treble] x4 | z2 z2 z[K:bass] B,- | B,2 z2 z2 | x6 | x6 | x6 | x6 | x6 | %10
 x2[K:treble] x4 | x2[K:bass] x4 | x3[K:treble] x3 | x6 | x4[K:bass] x2 | x6 | x6 |] %17

